app/assets/images/icons/active/calendar.svg

<?xml version="1.0" encoding="UTF-8" standalone="no"?>
<svg width="32px" height="232px" viewBox="0 0 32 232" version="1.1" xmlns="http://www.w3.org/2000/svg" xmlns:xlink="http://www.w3.org/1999/xlink" xmlns:sketch="http://www.bohemiancoding.com/sketch/ns">
    <title>calendar</title>
    <description>Created with Sketch (http://www.bohemiancoding.com/sketch)</description>
    <defs></defs>
    <g id="Actions" stroke="none" stroke-width="1" fill="none" fill-rule="evenodd" sketch:type="MSPage">
        <path d="M24.6344828,149 L7.39903448,149 C4.69655172,149 2.5,146.814069 2.5,144.127034 L2.5,130.860828 C2.5,128.209517 4.63862069,126.046759 7.288,125.988828 L7.288,128.504966 C7.288,129.964828 8.48137931,131.152414 9.94896552,131.152414 C11.4136552,131.152414 12.6070345,129.964828 12.6070345,128.504966 L12.6070345,125.986897 L18.965931,125.986897 L18.965931,128.504966 C18.965931,129.964828 20.1602759,131.152414 21.6288276,131.152414 C23.0944828,131.152414 24.2897931,129.964828 24.2897931,128.504966 L24.2897931,125.986897 L24.6344828,125.986897 C25.9244138,125.986897 27.0975172,126.486069 27.9722759,127.299034 L28.1991724,127.522069 C29.0246897,128.395862 29.5325517,129.568966 29.5325517,130.860828 L29.5325517,144.127034 C29.5325517,146.814069 27.3350345,149 24.6344828,149 L24.6344828,149 L24.6344828,149 L24.6344828,149 Z M5.13586207,137.057517 L9.85627586,137.057517 L9.85627586,133.215724 L5.13586207,133.215724 L5.13586207,133.215724 L5.13586207,137.057517 L5.13586207,137.057517 Z M5.13586207,141.746069 L9.85627586,141.746069 L9.85627586,137.996966 L5.13586207,137.996966 L5.13586207,137.996966 L5.13586207,141.746069 L5.13586207,141.746069 Z M9.85627586,142.682621 L5.13586207,142.682621 L5.13586207,144.127034 C5.13586207,145.36869 6.14868966,146.375724 7.39903448,146.375724 L9.85627586,146.375724 L9.85627586,142.682621 L9.85627586,142.682621 L9.85627586,142.682621 L9.85627586,142.682621 Z M10.7986207,137.057517 L15.5074483,137.057517 L15.5074483,133.215724 L10.7986207,133.215724 L10.7986207,133.215724 L10.7986207,137.057517 L10.7986207,137.057517 Z M10.7986207,141.746069 L15.5074483,141.746069 L15.5074483,137.996966 L10.7986207,137.996966 L10.7986207,137.996966 L10.7986207,141.746069 L10.7986207,141.746069 Z M10.7986207,146.375724 L15.5074483,146.375724 L15.5074483,142.683586 L10.7986207,142.683586 L10.7986207,142.683586 L10.7986207,146.375724 L10.7986207,146.375724 Z M16.4507586,137.057517 L21.1595862,137.057517 L21.1595862,133.215724 L16.4507586,133.215724 L16.4507586,133.215724 L16.4507586,137.057517 L16.4507586,137.057517 Z M16.4507586,141.746069 L21.1595862,141.746069 L21.1595862,137.996966 L16.4507586,137.996966 L16.4507586,137.996966 L16.4507586,141.746069 L16.4507586,141.746069 Z M16.4507586,146.375724 L21.1595862,146.375724 L21.1595862,142.683586 L16.4507586,142.683586 L16.4507586,142.683586 L16.4507586,146.375724 L16.4507586,146.375724 Z M22.101931,137.057517 L26.8957241,137.057517 L26.8957241,133.215724 L22.101931,133.215724 L22.101931,133.215724 L22.101931,137.057517 L22.101931,137.057517 Z M22.101931,141.746069 L26.8957241,141.746069 L26.8957241,137.996966 L22.101931,137.996966 L22.101931,137.996966 L22.101931,141.746069 L22.101931,141.746069 Z M26.8957241,142.682621 L22.101931,142.682621 L22.101931,146.375724 L24.6344828,146.375724 C25.8828966,146.375724 26.8957241,145.36869 26.8957241,144.127034 L26.8957241,142.682621 L26.8957241,142.682621 L26.8957241,142.682621 L26.8957241,142.682621 Z M21.6288276,130.214897 C20.6787586,130.214897 19.9092414,129.449241 19.9092414,128.504966 L19.9092414,123.676414 C19.9092414,122.731172 20.6787586,121.965517 21.6288276,121.965517 C22.577931,121.965517 23.3464828,122.731172 23.3464828,123.676414 L23.3464828,128.504966 C23.3464828,129.449241 22.577931,130.214897 21.6288276,130.214897 L21.6288276,130.214897 L21.6288276,130.214897 L21.6288276,130.214897 Z M9.94896552,130.214897 C8.99986207,130.214897 8.23034483,129.449241 8.23034483,128.504966 L8.23034483,123.676414 C8.23034483,122.731172 8.99986207,121.965517 9.94896552,121.965517 C10.8971034,121.965517 11.6666207,122.731172 11.6666207,123.676414 L11.6666207,128.504966 C11.6666207,129.449241 10.8971034,130.214897 9.94896552,130.214897 L9.94896552,130.214897 Z M9.94896552,130.214897" id="calendar--lp-blue" fill="#206FAC" sketch:type="MSShapeGroup"></path>
        <path d="M24.6344828,109 L7.39903448,109 C4.69655172,109 2.5,106.814069 2.5,104.127034 L2.5,90.8608276 C2.5,88.2095172 4.63862069,86.0467586 7.288,85.9888276 L7.288,88.5049655 C7.288,89.9648276 8.48137931,91.1524138 9.94896552,91.1524138 C11.4136552,91.1524138 12.6070345,89.9648276 12.6070345,88.5049655 L12.6070345,85.9868966 L18.965931,85.9868966 L18.965931,88.5049655 C18.965931,89.9648276 20.1602759,91.1524138 21.6288276,91.1524138 C23.0944828,91.1524138 24.2897931,89.9648276 24.2897931,88.5049655 L24.2897931,85.9868966 L24.6344828,85.9868966 C25.9244138,85.9868966 27.0975172,86.486069 27.9722759,87.2990345 L28.1991724,87.522069 C29.0246897,88.3958621 29.5325517,89.5689655 29.5325517,90.8608276 L29.5325517,104.127034 C29.5325517,106.814069 27.3350345,109 24.6344828,109 L24.6344828,109 L24.6344828,109 L24.6344828,109 Z M5.13586207,97.0575172 L9.85627586,97.0575172 L9.85627586,93.2157241 L5.13586207,93.2157241 L5.13586207,93.2157241 L5.13586207,97.0575172 L5.13586207,97.0575172 Z M5.13586207,101.746069 L9.85627586,101.746069 L9.85627586,97.9969655 L5.13586207,97.9969655 L5.13586207,97.9969655 L5.13586207,101.746069 L5.13586207,101.746069 Z M9.85627586,102.682621 L5.13586207,102.682621 L5.13586207,104.127034 C5.13586207,105.36869 6.14868966,106.375724 7.39903448,106.375724 L9.85627586,106.375724 L9.85627586,102.682621 L9.85627586,102.682621 L9.85627586,102.682621 L9.85627586,102.682621 Z M10.7986207,97.0575172 L15.5074483,97.0575172 L15.5074483,93.2157241 L10.7986207,93.2157241 L10.7986207,93.2157241 L10.7986207,97.0575172 L10.7986207,97.0575172 Z M10.7986207,101.746069 L15.5074483,101.746069 L15.5074483,97.9969655 L10.7986207,97.9969655 L10.7986207,97.9969655 L10.7986207,101.746069 L10.7986207,101.746069 Z M10.7986207,106.375724 L15.5074483,106.375724 L15.5074483,102.683586 L10.7986207,102.683586 L10.7986207,102.683586 L10.7986207,106.375724 L10.7986207,106.375724 Z M16.4507586,97.0575172 L21.1595862,97.0575172 L21.1595862,93.2157241 L16.4507586,93.2157241 L16.4507586,93.2157241 L16.4507586,97.0575172 L16.4507586,97.0575172 Z M16.4507586,101.746069 L21.1595862,101.746069 L21.1595862,97.9969655 L16.4507586,97.9969655 L16.4507586,97.9969655 L16.4507586,101.746069 L16.4507586,101.746069 Z M16.4507586,106.375724 L21.1595862,106.375724 L21.1595862,102.683586 L16.4507586,102.683586 L16.4507586,102.683586 L16.4507586,106.375724 L16.4507586,106.375724 Z M22.101931,97.0575172 L26.8957241,97.0575172 L26.8957241,93.2157241 L22.101931,93.2157241 L22.101931,93.2157241 L22.101931,97.0575172 L22.101931,97.0575172 Z M22.101931,101.746069 L26.8957241,101.746069 L26.8957241,97.9969655 L22.101931,97.9969655 L22.101931,97.9969655 L22.101931,101.746069 L22.101931,101.746069 Z M26.8957241,102.682621 L22.101931,102.682621 L22.101931,106.375724 L24.6344828,106.375724 C25.8828966,106.375724 26.8957241,105.36869 26.8957241,104.127034 L26.8957241,102.682621 L26.8957241,102.682621 L26.8957241,102.682621 L26.8957241,102.682621 Z M21.6288276,90.2148966 C20.6787586,90.2148966 19.9092414,89.4492414 19.9092414,88.5049655 L19.9092414,83.6764138 C19.9092414,82.7311724 20.6787586,81.9655172 21.6288276,81.9655172 C22.577931,81.9655172 23.3464828,82.7311724 23.3464828,83.6764138 L23.3464828,88.5049655 C23.3464828,89.4492414 22.577931,90.2148966 21.6288276,90.2148966 L21.6288276,90.2148966 L21.6288276,90.2148966 L21.6288276,90.2148966 Z M9.94896552,90.2148966 C8.99986207,90.2148966 8.23034483,89.4492414 8.23034483,88.5049655 L8.23034483,83.6764138 C8.23034483,82.7311724 8.99986207,81.9655172 9.94896552,81.9655172 C10.8971034,81.9655172 11.6666207,82.7311724 11.6666207,83.6764138 L11.6666207,88.5049655 C11.6666207,89.4492414 10.8971034,90.2148966 9.94896552,90.2148966 L9.94896552,90.2148966 Z M9.94896552,90.2148966" id="calendar--white" fill="#FFFFFF" sketch:type="MSShapeGroup"></path>
        <path d="M24.6344828,69 L7.39903448,69 C4.69655172,69 2.5,66.814069 2.5,64.1270345 L2.5,50.8608276 C2.5,48.2095172 4.63862069,46.0467586 7.288,45.9888276 L7.288,48.5049655 C7.288,49.9648276 8.48137931,51.1524138 9.94896552,51.1524138 C11.4136552,51.1524138 12.6070345,49.9648276 12.6070345,48.5049655 L12.6070345,45.9868966 L18.965931,45.9868966 L18.965931,48.5049655 C18.965931,49.9648276 20.1602759,51.1524138 21.6288276,51.1524138 C23.0944828,51.1524138 24.2897931,49.9648276 24.2897931,48.5049655 L24.2897931,45.9868966 L24.6344828,45.9868966 C25.9244138,45.9868966 27.0975172,46.486069 27.9722759,47.2990345 L28.1991724,47.522069 C29.0246897,48.3958621 29.5325517,49.5689655 29.5325517,50.8608276 L29.5325517,64.1270345 C29.5325517,66.814069 27.3350345,69 24.6344828,69 L24.6344828,69 L24.6344828,69 L24.6344828,69 Z M5.13586207,57.0575172 L9.85627586,57.0575172 L9.85627586,53.2157241 L5.13586207,53.2157241 L5.13586207,53.2157241 L5.13586207,57.0575172 L5.13586207,57.0575172 Z M5.13586207,61.746069 L9.85627586,61.746069 L9.85627586,57.9969655 L5.13586207,57.9969655 L5.13586207,57.9969655 L5.13586207,61.746069 L5.13586207,61.746069 Z M9.85627586,62.6826207 L5.13586207,62.6826207 L5.13586207,64.1270345 C5.13586207,65.3686897 6.14868966,66.3757241 7.39903448,66.3757241 L9.85627586,66.3757241 L9.85627586,62.6826207 L9.85627586,62.6826207 L9.85627586,62.6826207 L9.85627586,62.6826207 Z M10.7986207,57.0575172 L15.5074483,57.0575172 L15.5074483,53.2157241 L10.7986207,53.2157241 L10.7986207,53.2157241 L10.7986207,57.0575172 L10.7986207,57.0575172 Z M10.7986207,61.746069 L15.5074483,61.746069 L15.5074483,57.9969655 L10.7986207,57.9969655 L10.7986207,57.9969655 L10.7986207,61.746069 L10.7986207,61.746069 Z M10.7986207,66.3757241 L15.5074483,66.3757241 L15.5074483,62.6835862 L10.7986207,62.6835862 L10.7986207,62.6835862 L10.7986207,66.3757241 L10.7986207,66.3757241 Z M16.4507586,57.0575172 L21.1595862,57.0575172 L21.1595862,53.2157241 L16.4507586,53.2157241 L16.4507586,53.2157241 L16.4507586,57.0575172 L16.4507586,57.0575172 Z M16.4507586,61.746069 L21.1595862,61.746069 L21.1595862,57.9969655 L16.4507586,57.9969655 L16.4507586,57.9969655 L16.4507586,61.746069 L16.4507586,61.746069 Z M16.4507586,66.3757241 L21.1595862,66.3757241 L21.1595862,62.6835862 L16.4507586,62.6835862 L16.4507586,62.6835862 L16.4507586,66.3757241 L16.4507586,66.3757241 Z M22.101931,57.0575172 L26.8957241,57.0575172 L26.8957241,53.2157241 L22.101931,53.2157241 L22.101931,53.2157241 L22.101931,57.0575172 L22.101931,57.0575172 Z M22.101931,61.746069 L26.8957241,61.746069 L26.8957241,57.9969655 L22.101931,57.9969655 L22.101931,57.9969655 L22.101931,61.746069 L22.101931,61.746069 Z M26.8957241,62.6826207 L22.101931,62.6826207 L22.101931,66.3757241 L24.6344828,66.3757241 C25.8828966,66.3757241 26.8957241,65.3686897 26.8957241,64.1270345 L26.8957241,62.6826207 L26.8957241,62.6826207 L26.8957241,62.6826207 L26.8957241,62.6826207 Z M21.6288276,50.2148966 C20.6787586,50.2148966 19.9092414,49.4492414 19.9092414,48.5049655 L19.9092414,43.6764138 C19.9092414,42.7311724 20.6787586,41.9655172 21.6288276,41.9655172 C22.577931,41.9655172 23.3464828,42.7311724 23.3464828,43.6764138 L23.3464828,48.5049655 C23.3464828,49.4492414 22.577931,50.2148966 21.6288276,50.2148966 L21.6288276,50.2148966 L21.6288276,50.2148966 L21.6288276,50.2148966 Z M9.94896552,50.2148966 C8.99986207,50.2148966 8.23034483,49.4492414 8.23034483,48.5049655 L8.23034483,43.6764138 C8.23034483,42.7311724 8.99986207,41.9655172 9.94896552,41.9655172 C10.8971034,41.9655172 11.6666207,42.7311724 11.6666207,43.6764138 L11.6666207,48.5049655 C11.6666207,49.4492414 10.8971034,50.2148966 9.94896552,50.2148966 L9.94896552,50.2148966 Z M9.94896552,50.2148966" id="calendar--body-grey" fill="#67737B" sketch:type="MSShapeGroup"></path>
        <path d="M24.6344828,29 L7.39903448,29 C4.69655172,29 2.5,26.814069 2.5,24.1270345 L2.5,10.8608276 C2.5,8.20951724 4.63862069,6.04675862 7.288,5.98882759 L7.288,8.50496552 C7.288,9.96482759 8.48137931,11.1524138 9.94896552,11.1524138 C11.4136552,11.1524138 12.6070345,9.96482759 12.6070345,8.50496552 L12.6070345,5.98689655 L18.965931,5.98689655 L18.965931,8.50496552 C18.965931,9.96482759 20.1602759,11.1524138 21.6288276,11.1524138 C23.0944828,11.1524138 24.2897931,9.96482759 24.2897931,8.50496552 L24.2897931,5.98689655 L24.6344828,5.98689655 C25.9244138,5.98689655 27.0975172,6.48606897 27.9722759,7.29903448 L28.1991724,7.52206897 C29.0246897,8.39586207 29.5325517,9.56896552 29.5325517,10.8608276 L29.5325517,24.1270345 C29.5325517,26.814069 27.3350345,29 24.6344828,29 L24.6344828,29 L24.6344828,29 L24.6344828,29 Z M5.13586207,17.0575172 L9.85627586,17.0575172 L9.85627586,13.2157241 L5.13586207,13.2157241 L5.13586207,13.2157241 L5.13586207,17.0575172 L5.13586207,17.0575172 Z M5.13586207,21.746069 L9.85627586,21.746069 L9.85627586,17.9969655 L5.13586207,17.9969655 L5.13586207,17.9969655 L5.13586207,21.746069 L5.13586207,21.746069 Z M9.85627586,22.6826207 L5.13586207,22.6826207 L5.13586207,24.1270345 C5.13586207,25.3686897 6.14868966,26.3757241 7.39903448,26.3757241 L9.85627586,26.3757241 L9.85627586,22.6826207 L9.85627586,22.6826207 L9.85627586,22.6826207 L9.85627586,22.6826207 Z M10.7986207,17.0575172 L15.5074483,17.0575172 L15.5074483,13.2157241 L10.7986207,13.2157241 L10.7986207,13.2157241 L10.7986207,17.0575172 L10.7986207,17.0575172 Z M10.7986207,21.746069 L15.5074483,21.746069 L15.5074483,17.9969655 L10.7986207,17.9969655 L10.7986207,17.9969655 L10.7986207,21.746069 L10.7986207,21.746069 Z M10.7986207,26.3757241 L15.5074483,26.3757241 L15.5074483,22.6835862 L10.7986207,22.6835862 L10.7986207,22.6835862 L10.7986207,26.3757241 L10.7986207,26.3757241 Z M16.4507586,17.0575172 L21.1595862,17.0575172 L21.1595862,13.2157241 L16.4507586,13.2157241 L16.4507586,13.2157241 L16.4507586,17.0575172 L16.4507586,17.0575172 Z M16.4507586,21.746069 L21.1595862,21.746069 L21.1595862,17.9969655 L16.4507586,17.9969655 L16.4507586,17.9969655 L16.4507586,21.746069 L16.4507586,21.746069 Z M16.4507586,26.3757241 L21.1595862,26.3757241 L21.1595862,22.6835862 L16.4507586,22.6835862 L16.4507586,22.6835862 L16.4507586,26.3757241 L16.4507586,26.3757241 Z M22.101931,17.0575172 L26.8957241,17.0575172 L26.8957241,13.2157241 L22.101931,13.2157241 L22.101931,13.2157241 L22.101931,17.0575172 L22.101931,17.0575172 Z M22.101931,21.746069 L26.8957241,21.746069 L26.8957241,17.9969655 L22.101931,17.9969655 L22.101931,17.9969655 L22.101931,21.746069 L22.101931,21.746069 Z M26.8957241,22.6826207 L22.101931,22.6826207 L22.101931,26.3757241 L24.6344828,26.3757241 C25.8828966,26.3757241 26.8957241,25.3686897 26.8957241,24.1270345 L26.8957241,22.6826207 L26.8957241,22.6826207 L26.8957241,22.6826207 L26.8957241,22.6826207 Z M21.6288276,10.2148966 C20.6787586,10.2148966 19.9092414,9.44924138 19.9092414,8.50496552 L19.9092414,3.67641379 C19.9092414,2.73117241 20.6787586,1.96551724 21.6288276,1.96551724 C22.577931,1.96551724 23.3464828,2.73117241 23.3464828,3.67641379 L23.3464828,8.50496552 C23.3464828,9.44924138 22.577931,10.2148966 21.6288276,10.2148966 L21.6288276,10.2148966 L21.6288276,10.2148966 L21.6288276,10.2148966 Z M9.94896552,10.2148966 C8.99986207,10.2148966 8.23034483,9.44924138 8.23034483,8.50496552 L8.23034483,3.67641379 C8.23034483,2.73117241 8.99986207,1.96551724 9.94896552,1.96551724 C10.8971034,1.96551724 11.6666207,2.73117241 11.6666207,3.67641379 L11.6666207,8.50496552 C11.6666207,9.44924138 10.8971034,10.2148966 9.94896552,10.2148966 L9.94896552,10.2148966 Z M9.94896552,10.2148966" id="calendar--title-grey" fill="#3A434E" sketch:type="MSShapeGroup"></path>
    </g>
</svg>

<svg width="32" height="232" viewBox="0 0 32 232" xmlns="http://www.w3.org/2000/svg" xmlns:sketch="http://www.bohemiancoding.com/sketch/ns"><title>calendar</title><g sketch:type="MSPage" fill="none"><path d="M24.634 149h-17.235c-2.702 0-4.899-2.186-4.899-4.873v-13.266c0-2.651 2.139-4.814 4.788-4.872v2.516c0 1.46 1.193 2.647 2.661 2.647 1.465 0 2.658-1.188 2.658-2.647v-2.518h6.359v2.518c0 1.46 1.194 2.647 2.663 2.647 1.466 0 2.661-1.188 2.661-2.647v-2.518h.345c1.29 0 2.463.499 3.338 1.312l.227.223c.826.874 1.333 2.047 1.333 3.339v13.266c0 2.687-2.198 4.873-4.898 4.873zm-19.499-11.942h4.72v-3.842h-4.72v3.842zm0 4.689h4.72v-3.749h-4.72v3.749zm4.72.937h-4.72v1.444c0 1.242 1.013 2.249 2.263 2.249h2.457v-3.693zm.942-5.625h4.709v-3.842h-4.709v3.842zm0 4.689h4.709v-3.749h-4.709v3.749zm0 4.63h4.709v-3.692h-4.709v3.692zm5.652-9.318h4.709v-3.842h-4.709v3.842zm0 4.689h4.709v-3.749h-4.709v3.749zm0 4.63h4.709v-3.692h-4.709v3.692zm5.651-9.318h4.794v-3.842h-4.794v3.842zm0 4.689h4.794v-3.749h-4.794v3.749zm4.794.937h-4.794v3.693h2.533c1.248 0 2.261-1.007 2.261-2.249v-1.444zm-5.267-12.468c-.95 0-1.72-.766-1.72-1.71v-4.829c0-.945.77-1.711 1.72-1.711.949 0 1.718.766 1.718 1.711v4.829c0 .944-.769 1.71-1.718 1.71zm-11.68 0c-.949 0-1.719-.766-1.719-1.71v-4.829c0-.945.77-1.711 1.719-1.711.948 0 1.718.766 1.718 1.711v4.829c0 .944-.77 1.71-1.718 1.71zm0 0" fill="#206FAC" sketch:type="MSShapeGroup"/><path d="M24.634 109h-17.235c-2.702 0-4.899-2.186-4.899-4.873v-13.266c0-2.651 2.139-4.814 4.788-4.872v2.516c0 1.46 1.193 2.647 2.661 2.647 1.465 0 2.658-1.188 2.658-2.647v-2.518h6.359v2.518c0 1.46 1.194 2.647 2.663 2.647 1.466 0 2.661-1.188 2.661-2.647v-2.518h.345c1.29 0 2.463.499 3.338 1.312l.227.223c.826.874 1.333 2.047 1.333 3.339v13.266c0 2.687-2.198 4.873-4.898 4.873zm-19.499-11.942h4.72v-3.842h-4.72v3.842zm0 4.689h4.72v-3.749h-4.72v3.749zm4.72.937h-4.72v1.444c0 1.242 1.013 2.249 2.263 2.249h2.457v-3.693zm.942-5.625h4.709v-3.842h-4.709v3.842zm0 4.689h4.709v-3.749h-4.709v3.749zm0 4.63h4.709v-3.692h-4.709v3.692zm5.652-9.318h4.709v-3.842h-4.709v3.842zm0 4.689h4.709v-3.749h-4.709v3.749zm0 4.63h4.709v-3.692h-4.709v3.692zm5.651-9.318h4.794v-3.842h-4.794v3.842zm0 4.689h4.794v-3.749h-4.794v3.749zm4.794.937h-4.794v3.693h2.533c1.248 0 2.261-1.007 2.261-2.249v-1.444zm-5.267-12.468c-.95 0-1.72-.766-1.72-1.71v-4.829c0-.945.77-1.711 1.72-1.711.949 0 1.718.766 1.718 1.711v4.829c0 .944-.769 1.71-1.718 1.71zm-11.68 0c-.949 0-1.719-.766-1.719-1.71v-4.829c0-.945.77-1.711 1.719-1.711.948 0 1.718.766 1.718 1.711v4.829c0 .944-.77 1.71-1.718 1.71zm0 0" fill="#fff" sketch:type="MSShapeGroup"/><path d="M24.634 69h-17.235c-2.702 0-4.899-2.186-4.899-4.873v-13.266c0-2.651 2.139-4.814 4.788-4.872v2.516c0 1.46 1.193 2.647 2.661 2.647 1.465 0 2.658-1.188 2.658-2.647v-2.518h6.359v2.518c0 1.46 1.194 2.647 2.663 2.647 1.466 0 2.661-1.188 2.661-2.647v-2.518h.345c1.29 0 2.463.499 3.338 1.312l.227.223c.826.874 1.333 2.047 1.333 3.339v13.266c0 2.687-2.198 4.873-4.898 4.873zm-19.499-11.942h4.72v-3.842h-4.72v3.842zm0 4.689h4.72v-3.749h-4.72v3.749zm4.72.937h-4.72v1.444c0 1.242 1.013 2.249 2.263 2.249h2.457v-3.693zm.942-5.625h4.709v-3.842h-4.709v3.842zm0 4.689h4.709v-3.749h-4.709v3.749zm0 4.63h4.709v-3.692h-4.709v3.692zm5.652-9.318h4.709v-3.842h-4.709v3.842zm0 4.689h4.709v-3.749h-4.709v3.749zm0 4.63h4.709v-3.692h-4.709v3.692zm5.651-9.318h4.794v-3.842h-4.794v3.842zm0 4.689h4.794v-3.749h-4.794v3.749zm4.794.937h-4.794v3.693h2.533c1.248 0 2.261-1.007 2.261-2.249v-1.444zm-5.267-12.468c-.95 0-1.72-.766-1.72-1.71v-4.829c0-.945.77-1.711 1.72-1.711.949 0 1.718.766 1.718 1.711v4.829c0 .944-.769 1.71-1.718 1.71zm-11.68 0c-.949 0-1.719-.766-1.719-1.71v-4.829c0-.945.77-1.711 1.719-1.711.948 0 1.718.766 1.718 1.711v4.829c0 .944-.77 1.71-1.718 1.71zm0 0" fill="#67737B" sketch:type="MSShapeGroup"/><path d="M24.634 29h-17.235c-2.702 0-4.899-2.186-4.899-4.873v-13.266c0-2.651 2.139-4.814 4.788-4.872v2.516c0 1.46 1.193 2.647 2.661 2.647 1.465 0 2.658-1.188 2.658-2.647v-2.518h6.359v2.518c0 1.46 1.194 2.647 2.663 2.647 1.466 0 2.661-1.188 2.661-2.647v-2.518h.345c1.29 0 2.463.499 3.338 1.312l.227.223c.826.874 1.333 2.047 1.333 3.339v13.266c0 2.687-2.198 4.873-4.898 4.873zm-19.499-11.942h4.72v-3.842h-4.72v3.842zm0 4.689h4.72v-3.749h-4.72v3.749zm4.72.937h-4.72v1.444c0 1.242 1.013 2.249 2.263 2.249h2.457v-3.693zm.942-5.625h4.709v-3.842h-4.709v3.842zm0 4.689h4.709v-3.749h-4.709v3.749zm0 4.63h4.709v-3.692h-4.709v3.692zm5.652-9.318h4.709v-3.842h-4.709v3.842zm0 4.689h4.709v-3.749h-4.709v3.749zm0 4.63h4.709v-3.692h-4.709v3.692zm5.651-9.318h4.794v-3.842h-4.794v3.842zm0 4.689h4.794v-3.749h-4.794v3.749zm4.794.937h-4.794v3.693h2.533c1.248 0 2.261-1.007 2.261-2.249v-1.444zm-5.267-12.468c-.95 0-1.72-.766-1.72-1.71v-4.829c0-.945.77-1.711 1.72-1.711.949 0 1.718.766 1.718 1.711v4.829c0 .944-.769 1.71-1.718 1.71zm-11.68 0c-.949 0-1.719-.766-1.719-1.71v-4.829c0-.945.77-1.711 1.719-1.711.948 0 1.718.766 1.718 1.711v4.829c0 .944-.77 1.71-1.718 1.71zm0 0" fill="#3A434E" sketch:type="MSShapeGroup"/></g></svg>
